X:26
T: JETZT KOMMT DIE FROHE STUNDE
N: E0641A
O: Europa, Mitteleuropa, Deutschland, Taunus, Wuerges
R: Liebes - Lied
M: 6/8
L: 1/8
K: Bb
F | F2EDFB | B2cA2
F | FAccde | e2fd2
B | c2ccdc | B2cd2
d | e2eefe | d4z

